packages/core/src/svgs/xwin.svg

<svg width="24" height="24" viewBox="0 0 24 24" fill="none" xmlns="http://www.w3.org/2000/svg">
<g clip-path="url(#clip0_31_21079)">
<path d="M0 0H24V24H0V0Z" fill="#F0F3FA"/>
<path d="M12.1715 6.34277C12.2829 6.06848 12.5057 5.74276 12.8143 5.70848C12.9429 5.69134 13.0715 5.67848 13.2043 5.67419C14.0272 5.62705 15.0472 5.58848 16.26 5.57134C16.6457 5.56705 17.0229 5.58848 17.3872 5.63562C18.0943 5.72562 18.4586 6.14991 18.5357 6.82277C18.57 7.12277 18.5829 7.42277 18.5743 7.72277C18.5529 8.23705 18.5186 8.79848 18.4715 9.41134C18.4415 9.83991 18.2829 10.1742 18 10.4185C17.9872 10.4271 17.9872 10.4442 18 10.4571C18.2915 10.7999 18.5057 11.2113 18.6429 11.6828C18.8872 12.5442 18.9043 13.4913 18.7886 14.3742C18.7672 14.5285 18.72 14.6871 18.6557 14.8456C18.4726 15.2779 18.2334 15.6843 17.9443 16.0542C16.56 17.8456 14.5157 18.8228 12.2057 18.8571C11.0229 18.8742 9.95146 18.7456 8.99146 18.4713C7.47003 18.0428 6.23574 17.1385 5.69146 15.6428C5.47717 15.0685 5.35717 14.4728 5.33146 13.8685C5.2886 12.8742 5.5286 11.7942 5.8886 10.8342C5.90146 10.8128 5.89289 10.7913 5.87574 10.7828C5.56717 10.5771 5.31003 10.3499 5.22003 9.99848C5.16647 9.76083 5.14058 9.51779 5.14289 9.27419C5.1386 8.54562 5.15146 7.76991 5.18574 6.95991C5.18574 6.84419 5.21146 6.73705 5.25003 6.64705C5.33486 6.43613 5.4724 6.2505 5.64949 6.10793C5.82657 5.96536 6.03728 5.87061 6.26146 5.83276C6.40288 5.81134 6.53574 5.78991 6.66431 5.78562C7.86431 5.68705 9.04288 5.66134 10.2086 5.69991C10.6517 5.75063 11.0575 5.972 11.34 6.31705C11.3489 6.32779 11.36 6.33643 11.3726 6.34236C11.3852 6.34829 11.399 6.35136 11.4129 6.35134L12.12 6.37705C12.131 6.37705 12.1418 6.3738 12.1509 6.36769C12.1601 6.36159 12.1672 6.35292 12.1715 6.34277Z" fill="#231F20"/>
<path d="M12.9001 8.08724C12.823 7.70153 12.6858 6.58724 13.1144 6.3601C13.2083 6.31342 13.31 6.28436 13.4144 6.27439C13.8235 6.2283 14.2368 6.23406 14.6444 6.29153L12.9258 8.09153L12.9173 8.09582H12.913C12.9109 8.0952 12.9091 8.0941 12.9076 8.0926C12.9061 8.09111 12.905 8.08927 12.9044 8.08724H12.9001ZM6.1544 6.59582C6.26583 6.55296 6.36869 6.53153 6.47583 6.52296C6.85697 6.4905 7.24045 6.49768 7.62011 6.54439C7.62102 6.54736 7.6211 6.55053 7.62035 6.55355C7.61959 6.55657 7.61803 6.55933 7.61583 6.56153L5.90154 8.35296C5.89742 8.35463 5.89281 8.35463 5.88869 8.35296C5.88602 8.35264 5.88347 8.35169 5.88124 8.3502C5.879 8.34871 5.87715 8.34672 5.87583 8.34439L5.81583 7.89439C5.77297 7.56439 5.74297 6.73724 6.1544 6.59582Z" fill="white"/>
<path d="M11.0785 10.0369C11.1514 9.87407 11.2028 9.69836 11.2328 9.50979C11.3017 9.10558 11.3475 8.69778 11.3699 8.28836C11.3728 8.28559 11.3761 8.2834 11.3798 8.28193C11.3835 8.28046 11.3874 8.27973 11.3914 8.27979H12.3214C12.3299 8.27979 12.3342 8.27979 12.3428 8.28836L12.3514 8.30979C12.3668 8.77621 12.3954 9.24211 12.4371 9.70693C12.5142 10.1398 12.7628 10.6069 13.1485 10.8126C13.2642 10.8726 13.4057 10.9112 13.5728 10.9198C13.9757 10.9455 14.3871 10.9498 14.8071 10.9326C15.6299 10.9026 16.4142 10.8469 17.1599 10.7698C17.3399 10.7484 17.5114 10.6969 17.6785 10.6155C17.6868 10.6111 17.6964 10.6095 17.7057 10.6111C17.715 10.6126 17.7235 10.6172 17.7299 10.6241C18.0594 11.0178 18.2849 11.4878 18.3857 11.9912C18.5614 12.7841 18.5785 13.6069 18.4414 14.4555C18.4199 14.5755 18.3771 14.7126 18.2999 14.8669C18.0857 15.3126 17.8199 15.7241 17.4942 16.1098C16.3917 17.4258 14.8278 18.2706 13.1228 18.4712C12.2057 18.5955 11.2842 18.5569 10.3757 18.4369C9.15851 18.2784 7.93279 17.8969 7.03279 17.0955C6.38426 16.4946 5.94563 15.7014 5.78137 14.8326C5.6474 14.2279 5.61554 13.605 5.68708 12.9898C5.77279 12.2955 5.93137 11.6269 6.17565 10.9884C6.18422 10.9712 6.19708 10.9669 6.21422 10.9712L6.36851 11.0098C6.67708 11.0526 7.02851 11.0741 7.42708 11.0741C8.09137 11.0698 8.77279 11.0441 9.47565 11.0012C9.75851 10.9798 10.0071 10.9541 10.2257 10.9112C10.6114 10.8384 10.9242 10.3969 11.0828 10.0369H11.0785Z" fill="#79C928"/>
<path d="M11.7 14.8459C11.7 15.2531 11.9871 15.5873 12.3385 15.5873C12.69 15.5873 12.9728 15.2531 12.9728 14.8459C12.9728 14.4345 12.69 14.1045 12.3385 14.1045C11.9871 14.1045 11.7 14.4345 11.7 14.8459Z" fill="#231F20"/>
</g>
<defs>
<clipPath id="clip0_31_21079">
<rect width="24" height="24" fill="white"/>
</clipPath>
</defs>
</svg>

<svg xmlns="http://www.w3.org/2000/svg" width="24" height="24" fill="none" viewBox="0 0 24 24"><g clip-path="url(#a)"><path fill="#F0F3FA" d="M0 0h24v24H0z"/><path fill="#231F20" d="M12.172 6.343c.11-.275.334-.6.642-.635q.193-.027.39-.034a72 72 0 0 1 3.056-.103q.58-.006 1.127.065c.707.09 1.072.514 1.149 1.187q.051.45.038.9a48 48 0 0 1-.103 1.688q-.046.642-.471 1.008c-.013.008-.013.025 0 .038q.437.516.643 1.226c.244.861.261 1.808.146 2.691a2 2 0 0 1-.133.472 5.4 5.4 0 0 1-.712 1.208c-1.384 1.792-3.428 2.769-5.738 2.803q-1.775.026-3.215-.386c-1.521-.428-2.755-1.332-3.3-2.828a5.8 5.8 0 0 1-.36-1.775c-.042-.994.198-2.074.558-3.034.012-.021.004-.043-.013-.051-.309-.206-.566-.433-.656-.785a3.2 3.2 0 0 1-.077-.724c-.004-.728.008-1.504.043-2.314 0-.116.025-.223.064-.313a1.33 1.33 0 0 1 1.011-.814c.142-.022.275-.043.403-.047A31 31 0 0 1 10.21 5.7c.443.05.848.272 1.131.617a.1.1 0 0 0 .073.034l.707.026a.06.06 0 0 0 .052-.034"/><path fill="#fff" d="M12.9 8.087c-.077-.385-.214-1.5.214-1.727a.9.9 0 0 1 .3-.086 5 5 0 0 1 1.23.018l-1.718 1.8-.009.004h-.004a.01.01 0 0 1-.009-.009zM6.154 6.596a1.1 1.1 0 0 1 .322-.073 5.5 5.5 0 0 1 1.144.021.02.02 0 0 1-.004.018L5.902 8.353a.02.02 0 0 1-.013 0 .02.02 0 0 1-.013-.009l-.06-.45c-.043-.33-.073-1.157.338-1.298"/><path fill="#79C928" d="M11.079 10.037q.108-.245.154-.527.103-.606.137-1.222a.03.03 0 0 1 .021-.008h.93c.009 0 .013 0 .022.008l.008.022q.024.7.086 1.397c.077.433.326.9.712 1.106q.173.092.424.107.604.038 1.234.013 1.234-.046 2.353-.163.269-.033.518-.154a.04.04 0 0 1 .052.008c.33.394.555.864.656 1.367q.262 1.19.055 2.465c-.021.12-.064.257-.141.41-.214.447-.48.858-.806 1.244a6.73 6.73 0 0 1-4.371 2.361c-.917.125-1.839.086-2.747-.034-1.217-.159-2.443-.54-3.343-1.341a4.13 4.13 0 0 1-1.252-2.263 5.6 5.6 0 0 1-.094-1.843 8.5 8.5 0 0 1 .489-2.002q.012-.024.038-.017l.155.039q.461.064 1.058.064.995-.007 2.049-.073a7 7 0 0 0 .75-.09c.385-.073.698-.514.857-.874z"/><path fill="#231F20" d="M11.7 14.846c0 .407.287.741.639.741.351 0 .634-.334.634-.741 0-.412-.283-.742-.635-.742-.35 0-.638.33-.638.742"/></g><defs><clipPath id="a"><path fill="#fff" d="M0 0h24v24H0z"/></clipPath></defs></svg>
